X: 23855
T: Livvie's
R: jig
M: 6/8
K: Eminor
|:GAB AGF|GED EGA|BGG dGG|cAG AGF|
~G3 AGF|GED EGA|B/c/dg edB|1 BAF E2F:|2 BAF E2e||
|:efe ~g3|bda gfe|faf d^cd|FAD FB/c/d|
efe ~g3|bde fed|~B3 AGF|1 GED E2e:|2 GED E2F||

